flaticon/wild-west/tipi.svg

<svg xmlns="http://www.w3.org/2000/svg" width="32" height="32" viewBox="0 0 24 24">
    <path d="M23.585938 23.171875L21.363281 23.171875 12.460938 5 13.199219 3.492188C13.300781 3.289062 13.214844 3.039062 13.007812 2.9375 12.804688 2.839844 12.554688 2.921875 12.457031 3.128906L12 4.058594 11.542969 3.128906C11.445312 2.921875 11.195312 2.839844 10.992188 2.9375 10.785156 3.039062 10.699219 3.289062 10.800781 3.492188L11.539062 5 2.636719 23.171875.414062 23.171875C.183594 23.171875 0 23.359375 0 23.585938 0 23.816406.183594 24 .414062 24L23.585938 24C23.816406 24 24 23.816406 24 23.585938 24 23.359375 23.816406 23.171875 23.585938 23.171875zM12 16.921875L14.304688 23.171875 9.695312 23.171875zM8.9375 22.835938L7.597656 21.496094 10.816406 17.742188zM13.183594 17.742188L16.402344 21.496094 15.0625 22.835938zM17.257812 21.808594C17.410156 21.65625 17.421875 21.414062 17.28125 21.246094L12.414062 15.570312 12.414062 13.828125 13.359375 14.773438 13.660156 15.066406 15.546875 13.179688 20.441406 23.171875 15.894531 23.171875zM15.160156 12.394531L13.65625 13.898438 12.292969 12.535156 11.996094 12.246094 10.34375 13.898438 8.839844 12.394531 12 5.941406zM8.453125 13.179688L10.050781 14.773438 10.347656 15.0625 11.585938 13.828125 11.585938 15.570312 6.71875 21.246094C6.578125 21.414062 6.589844 21.65625 6.742188 21.808594L8.105469 23.171875 3.558594 23.171875zM20.972656 6.625C22.332031 6.625 23.542969 5.730469 23.980469 4.398438 24.03125 4.246094 23.988281 4.074219 23.867188 3.964844 23.746094 3.855469 23.574219 3.828125 23.425781 3.890625 23.125 4.015625 22.8125 4.078125 22.492188 4.078125 21.121094 4.078125 20.003906 2.917969 20.003906 1.488281 20.003906 1.300781 20.023438 1.109375 20.066406.914062 20.101562.757812 20.039062.589844 19.90625.496094 19.777344.398438 19.601562.386719 19.460938.464844 18.429688 1.039062 17.792969 2.144531 17.792969 3.347656 17.792969 5.15625 19.21875 6.625 20.972656 6.625zM19.183594 1.757812C19.316406 3.515625 20.75 4.90625 22.492188 4.90625 22.59375 4.90625 22.691406 4.902344 22.792969 4.894531 22.355469 5.453125 21.691406 5.796875 20.972656 5.796875 19.675781 5.796875 18.621094 4.699219 18.621094 3.347656 18.621094 2.753906 18.828125 2.191406 19.183594 1.757812zM1.242188 8.277344L1.898438 8.277344 2.898438 9.273438 2.898438 9.929688C2.898438 10.160156 3.082031 10.34375 3.308594 10.34375 3.539062 10.34375 3.722656 10.160156 3.722656 9.929688L3.722656 9.273438 4.722656 8.277344 5.378906 8.277344C5.609375 8.277344 5.792969 8.089844 5.792969 7.863281 5.792969 7.632812 5.609375 7.449219 5.378906 7.449219L4.722656 7.449219 3.722656 6.449219 3.722656 5.792969C3.722656 5.566406 3.539062 5.378906 3.308594 5.378906 3.082031 5.378906 2.898438 5.566406 2.898438 5.792969L2.898438 6.449219 1.898438 7.449219 1.242188 7.449219C1.011719 7.449219.828125 7.632812.828125 7.863281.828125 8.089844 1.011719 8.277344 1.242188 8.277344zM3.308594 7.207031L3.964844 7.863281 3.308594 8.519531 2.652344 7.863281zM2.484375.414062C2.484375.640625 2.296875.828125 2.070312.828125 1.839844.828125 1.65625.640625 1.65625.414062 1.65625.183594 1.839844 0 2.070312 0 2.296875 0 2.484375.183594 2.484375.414062zM8.691406 4.964844C8.691406 5.195312 8.503906 5.378906 8.277344 5.378906 8.046875 5.378906 7.863281 5.195312 7.863281 4.964844 7.863281 4.738281 8.046875 4.550781 8.277344 4.550781 8.503906 4.550781 8.691406 4.738281 8.691406 4.964844zM21.515625 12.414062C21.515625 12.640625 21.332031 12.828125 21.101562 12.828125 20.875 12.828125 20.691406 12.640625 20.691406 12.414062 20.691406 12.183594 20.875 12 21.101562 12 21.332031 12 21.515625 12.183594 21.515625 12.414062zM16.964844.828125C16.964844 1.054688 16.78125 1.242188 16.550781 1.242188 16.324219 1.242188 16.136719 1.054688 16.136719.828125 16.136719.597656 16.324219.414062 16.550781.414062 16.78125.414062 16.964844.597656 16.964844.828125zM16.964844.828125"/>
</svg>

<svg xmlns="http://www.w3.org/2000/svg" width="32" height="32" viewBox="0 0 24 24">
    <path d="M23.586 23.172h-2.223L12.461 5l.738-1.508a.414.414 0 0 0-.191-.554.412.412 0 0 0-.551.19l-.457.93-.457-.93a.412.412 0 0 0-.55-.19.414.414 0 0 0-.192.554L11.539 5 2.637 23.172H.414a.414.414 0 0 0 0 .828h23.172a.414.414 0 0 0 0-.828zM12 16.922l2.305 6.25h-4.61zm-3.063 5.914l-1.34-1.34 3.22-3.754zm4.247-5.094l3.218 3.754-1.34 1.34zm4.074 4.067a.415.415 0 0 0 .023-.563l-4.867-5.676v-1.742l.945.945.301.293 1.887-1.886 4.894 9.992h-4.546zm-2.098-9.414l-1.504 1.503-1.363-1.363-.297-.289-1.652 1.652-1.504-1.503L12 5.94zm-6.707.785l1.598 1.593.297.29 1.238-1.235v1.742l-4.867 5.676a.415.415 0 0 0 .023.563l1.363 1.363H3.56zm0 0M20.973 6.625c1.359 0 2.57-.895 3.007-2.227a.411.411 0 0 0-.554-.507c-.301.125-.613.187-.934.187-1.37 0-2.488-1.16-2.488-2.59 0-.187.02-.379.062-.574a.406.406 0 0 0-.16-.418.41.41 0 0 0-.445-.031c-1.031.574-1.668 1.68-1.668 2.883 0 1.808 1.426 3.277 3.18 3.277zm-1.79-4.867c.133 1.758 1.567 3.148 3.31 3.148.1 0 .198-.004.3-.011a2.317 2.317 0 0 1-1.82.902c-1.297 0-2.352-1.098-2.352-2.45 0-.593.207-1.156.563-1.59zm0 0M1.242 8.277h.656l1 .996v.657a.412.412 0 1 0 .824 0v-.657l1-.996h.657a.414.414 0 0 0 0-.828h-.656l-1-1v-.656a.414.414 0 0 0-.414-.414.413.413 0 0 0-.41.414v.656l-1 1h-.657a.414.414 0 0 0 0 .828zm2.067-1.07l.656.656-.656.657-.657-.657zm0 0M2.484.414a.414.414 0 1 1-.828 0 .414.414 0 0 1 .828 0zm0 0M8.691 4.965a.414.414 0 1 1-.828 0 .414.414 0 0 1 .828 0zm0 0M21.516 12.414a.414.414 0 0 1-.414.414.413.413 0 0 1-.41-.414.412.412 0 1 1 .824 0zm0 0M16.965.828a.414.414 0 1 1-.829 0 .414.414 0 0 1 .829 0zm0 0"/>
</svg>
